source/img/footer-twitter-logo.svg

<svg width="18" height="14" viewBox="0 0 18 14" fill="none" xmlns="http://www.w3.org/2000/svg">
<path d="M11.5641 0.168904C12.2458 -0.0461515 12.9837 -0.0560928 13.6719 0.140507C14.3602 0.337107 14.9633 0.730138 15.3947 1.26319C16.1053 1.05385 16.8055 0.815959 17.5263 0.606617C17.5164 0.925848 17.4299 1.23907 17.2732 1.52372C17.1165 1.80837 16.8935 2.05738 16.6201 2.2528C16.8726 2.27877 17.1281 2.25112 17.3673 2.17197C17.6064 2.09281 17.8228 1.96424 18 1.79606C17.901 2.20987 17.6999 2.59695 17.4123 2.92708C17.1247 3.2572 16.7585 3.52144 16.3421 3.69916C16.095 9.96988 12.9748 14.1662 5.65332 13.9949H5.14874C4.70595 13.9949 0.731121 13.5667 0 12.2441C1.75201 12.4899 3.53888 12.0976 4.98398 11.1498C3.95423 10.8643 2.13158 10.7026 1.82265 8.40934C2.2108 8.54337 2.6321 8.57306 3.03776 8.49498C1.76087 7.70519 0.339817 7.0391 0.422197 4.99327C0.819634 5.29882 1.3269 5.45507 1.84325 5.43098C1.10183 5.20261 -0.24714 2.30989 0.895881 0.825474C2.82151 2.54778 4.86041 4.17493 8.48512 4.3367C8.71167 2.20522 9.68993 0.777896 11.5641 0.168904Z" fill="#D22856"/>
</svg>

<svg xmlns="http://www.w3.org/2000/svg" width="18" height="14" fill="none"><path fill="#D22856" d="M11.56.17a3.67 3.67 0 0 1 2.11-.03c.69.2 1.3.59 1.72 1.12.72-.2 1.42-.44 2.14-.65-.01.32-.1.63-.26.91a2.2 2.2 0 0 1-.65.73A1.8 1.8 0 0 0 18 1.8c-.1.41-.3.8-.59 1.13-.29.33-.65.6-1.07.77C16.1 9.97 12.97 14.17 5.65 14h-.5C4.7 14 .73 13.56 0 12.23a7.28 7.28 0 0 0 4.98-1.09c-1.03-.29-2.85-.45-3.16-2.74.4.13.81.16 1.22.08C1.76 7.71.34 7.04.42 5c.4.3.9.47 1.42.44C1.1 5.2-.25 2.31.9.83c1.92 1.72 3.96 3.34 7.59 3.5C8.7 2.22 9.69.79 11.56.18Z"/></svg>
